packages/nodes-base/nodes/Transform/Summarize/summarize.svg

<svg xmlns="http://www.w3.org/2000/svg" width="512" height="512" fill="none"><path fill="#F92" fill-rule="evenodd" d="M132 91c-15.464 0-28 12.536-28 28v317c0 15.464 12.536 28 28 28h248c15.464 0 28-12.536 28-28V119c0-15.464-12.536-28-28-28h-6a6 6 0 0 1-6-6V49a6 6 0 0 1 6-6h6c41.974 0 76 34.026 76 76v317c0 41.974-34.026 76-76 76H132c-41.974 0-76-34.026-76-76V119c0-41.974 34.026-76 76-76h6a6 6 0 0 1 6 6v36a6 6 0 0 1-6 6z" clip-rule="evenodd"/><path fill="#F92" fill-rule="evenodd" d="M256 0c-27.232 0-50.227 18.142-57.558 43H182a6 6 0 0 0-6 6v70a6 6 0 0 0 6 6h148a6 6 0 0 0 6-6V49a6 6 0 0 0-6-6h-16.442C306.227 18.142 283.232 0 256 0m0 40a19.9 19.9 0 0 0-10.541 3C239.781 46.528 236 52.823 236 60c0 11.046 8.954 20 20 20s20-8.954 20-20c0-7.177-3.781-13.472-9.459-17A19.9 19.9 0 0 0 256 40m101 179c0 6.627-5.373 12-12 12H233c-6.627 0-12-5.373-12-12v-24c0-6.627 5.373-12 12-12h112c6.627 0 12 5.373 12 12z" clip-rule="evenodd"/><path fill="#F92" d="M197 207c0 13.255-10.745 24-24 24s-24-10.745-24-24 10.745-24 24-24 24 10.745 24 24"/><path fill="#F92" fill-rule="evenodd" d="M357 395c0 6.627-5.373 12-12 12H233c-6.627 0-12-5.373-12-12v-24c0-6.627 5.373-12 12-12h112c6.627 0 12 5.373 12 12z" clip-rule="evenodd"/><path fill="#F92" d="M197 383c0 13.255-10.745 24-24 24s-24-10.745-24-24 10.745-24 24-24 24 10.745 24 24"/><path fill="#F92" fill-rule="evenodd" d="M357 307c0 6.627-5.373 12-12 12H233c-6.627 0-12-5.373-12-12v-24c0-6.627 5.373-12 12-12h112c6.627 0 12 5.373 12 12z" clip-rule="evenodd"/><path fill="#F92" d="M197 295c0 13.255-10.745 24-24 24s-24-10.745-24-24 10.745-24 24-24 24 10.745 24 24"/></svg>

<svg width="512" height="512" viewBox="0 0 512 512" fill="none" xmlns="http://www.w3.org/2000/svg">
<path fill-rule="evenodd" clip-rule="evenodd" d="M132 91C116.536 91 104 103.536 104 119V436C104 451.464 116.536 464 132 464H380C395.464 464 408 451.464 408 436V119C408 103.536 395.464 91 380 91H374C370.686 91 368 88.3137 368 85V49C368 45.6863 370.686 43 374 43H380C421.974 43 456 77.0264 456 119V436C456 477.974 421.974 512 380 512H132C90.0263 512 56 477.974 56 436V119C56 77.0264 90.0264 43 132 43H138C141.314 43 144 45.6863 144 49V85C144 88.3137 141.314 91 138 91H132Z" fill="#FF9922"/>
<path fill-rule="evenodd" clip-rule="evenodd" d="M256 0C228.768 0 205.773 18.1424 198.442 43H182C178.686 43 176 45.6863 176 49V119C176 122.314 178.686 125 182 125H330C333.314 125 336 122.314 336 119V49C336 45.6863 333.314 43 330 43H313.558C306.227 18.1424 283.232 0 256 0ZM256 40C252.132 40 248.52 41.0983 245.459 43C239.781 46.5284 236 52.8227 236 60C236 71.0457 244.954 80 256 80C267.046 80 276 71.0457 276 60C276 52.8227 272.219 46.5284 266.541 43C263.48 41.0983 259.868 40 256 40Z" fill="#FF9922"/>
<path fill-rule="evenodd" clip-rule="evenodd" d="M357 219C357 225.627 351.627 231 345 231H233C226.373 231 221 225.627 221 219V195C221 188.373 226.373 183 233 183H345C351.627 183 357 188.373 357 195V219Z" fill="#FF9922"/>
<path d="M197 207C197 220.255 186.255 231 173 231C159.745 231 149 220.255 149 207C149 193.745 159.745 183 173 183C186.255 183 197 193.745 197 207Z" fill="#FF9922"/>
<path fill-rule="evenodd" clip-rule="evenodd" d="M357 395C357 401.627 351.627 407 345 407H233C226.373 407 221 401.627 221 395V371C221 364.373 226.373 359 233 359H345C351.627 359 357 364.373 357 371V395Z" fill="#FF9922"/>
<path d="M197 383C197 396.255 186.255 407 173 407C159.745 407 149 396.255 149 383C149 369.745 159.745 359 173 359C186.255 359 197 369.745 197 383Z" fill="#FF9922"/>
<path fill-rule="evenodd" clip-rule="evenodd" d="M357 307C357 313.627 351.627 319 345 319H233C226.373 319 221 313.627 221 307V283C221 276.373 226.373 271 233 271H345C351.627 271 357 276.373 357 283V307Z" fill="#FF9922"/>
<path d="M197 295C197 308.255 186.255 319 173 319C159.745 319 149 308.255 149 295C149 281.745 159.745 271 173 271C186.255 271 197 281.745 197 295Z" fill="#FF9922"/>
</svg>
